dist/svg/icon-on-the-go.svg

<svg xmlns="http://www.w3.org/2000/svg" viewBox="0 0 58 58"><path data-name="On the Go" d="M41.39 55.31a6.22 6.22 0 01-6.24-6.19 6 6 0 011.21-3.63l-3.75-4.81h-7.24l-4.12 4.8a6 6 0 011.22 3.64 6.25 6.25 0 11-2.33-4.8l3.11-3.64h-8a8.89 8.89 0 01-8.94-8.88v-7.17a.8.8 0 01.81-.8h12.32l-4.79-6.13a4.13 4.13 0 00-3.16-1.53H4.67a3 3 0 00-3.06 3A.81.81 0 010 19.2a4.65 4.65 0 014.67-4.63h6.82a5.76 5.76 0 014.41 2.12l5.58 7.14h5.19V3.51a.81.81 0 01.75-.8h.83c2.25 0 10 .41 15.65 5.69C48 12.18 50 17.65 50 24.63v7.17a8.89 8.89 0 01-8.89 8.88h-6.46l2.83 3.64a6.2 6.2 0 113.91 11zm-20.53-6.19a4.64 4.64 0 10-4.63 4.58 4.61 4.61 0 004.63-4.58zm25.17 0a4.64 4.64 0 10-4.64 4.58A4.61 4.61 0 0046 49.12zm-14.68-10L20.7 25.44H7.92v6.36a7.29 7.29 0 007.28 7.28zm-3.08-16.87L42 8.85C37 4.73 30.42 4.32 28.27 4.3zm20.11 1.58c-.15-5.91-1.89-10.58-5.18-13.9L29 23.83zm-7.27 15.25a7.29 7.29 0 007.28-7.28v-6.36H22.74l10.65 13.64z" fill="#fff"/></svg>

<svg xmlns="http://www.w3.org/2000/svg" viewBox="0 0 58 58"><path data-name="On the Go" d="M41.39,55.31a6.22,6.22,0,0,1-6.24-6.19,6,6,0,0,1,1.21-3.63l-3.75-4.81H25.37l-4.12,4.8a6,6,0,0,1,1.22,3.64,6.25,6.25,0,1,1-2.33-4.8l3.11-3.64h-8A8.89,8.89,0,0,1,6.31,31.8V24.63a.8.8,0,0,1,.81-.8H19.44L14.65,17.7a4.13,4.13,0,0,0-3.16-1.53H4.67a3,3,0,0,0-3.06,3A.81.81,0,0,1,0,19.2a4.65,4.65,0,0,1,4.67-4.63h6.82a5.76,5.76,0,0,1,4.41,2.12l5.58,7.14h5.19V3.51a.81.81,0,0,1,.75-.8c.06,0,.35,0,.83,0,2.25,0,10,.41,15.65,5.69C48,12.18,50,17.65,50,24.63V31.8a8.89,8.89,0,0,1-8.89,8.88H34.65l2.83,3.64a6.2,6.2,0,1,1,3.91,11ZM20.86,49.12a4.64,4.64,0,1,0-4.63,4.58A4.61,4.61,0,0,0,20.86,49.12Zm25.17,0a4.64,4.64,0,1,0-4.64,4.58A4.61,4.61,0,0,0,46,49.12Zm-14.68-10L20.7,25.44H7.92V31.8a7.29,7.29,0,0,0,7.28,7.28ZM28.27,22.25,42,8.85C37,4.73,30.42,4.32,28.27,4.3Zm20.11,1.58c-.15-5.91-1.89-10.58-5.18-13.9L29,23.83ZM41.11,39.08a7.29,7.29,0,0,0,7.28-7.28V25.44H22.74L33.39,39.08Z" fill="#fff"/></svg>
